X: 09108
T: SUGAR RIVER
C: Bob McQuillen 3 Oct 92
B: Bob's Note Book 9 p.108
R: reel
Z: 2017 John Chambers <jc:trillian.mit.edu>
L: 1/8
M: C
K: C
ED |\
CEGA GEGc | efed c2G2 | A2FA G2EG | AcGE D2ED |
CEGA GEGc | efed c2G2 | Acfe dcBA | G2c2 c2 :|
|: cd |\
efed c2G2 | ABcA G2E2 | FAGF EGcd | egec d2cd |
efed c2G2 | ABcA G2E2 | FAGF EGcf | edcB c2 :|
%%begintext align
%% Janie Orzechowski, who is the
%% fiddler in our new band "Old New England," sent me such a pretty
%% picture post card of this great river up in Newport, NH,
%% that I thought it needed a tune to go with it. So here it
%% is, Janie! (Deanna Stiles plays flute in our band, too; she's out
%% there in a canoe in the picture, but you can't really tell who it is.)
%%endtext

%%sep 1 1 500

%%sep 1 1 500

